svg/u1f56f.svg

<svg viewBox="0 0 128 128" xmlns="http://www.w3.org/2000/svg">
  <radialGradient id="SVGID_1_" cx="64.939" cy="25.4126" gradientTransform="matrix(0.6861 0 0 0.6604 19.2439 9.3232)" gradientUnits="userSpaceOnUse" r="39.3905">
    <stop offset="0.0882" stop-color="#FFE265" stop-opacity="0.7"/>
    <stop offset="0.3977" stop-color="#FFEC99" stop-opacity="0.4484"/>
    <stop offset="0.9493" stop-color="#FFFFFF" stop-opacity="0"/>
  </radialGradient>
  <path d="M90.91,26.63c0,13.56-9.16,25.96-27.18,25.58C41.56,51.73,36.69,39.45,36.69,25.9 S46.34,0,66.05,0C83.91,0,90.91,13.07,90.91,26.63z" fill="url(#SVGID_1_)"/>
  <g>
    <g>
      <linearGradient id="SVGID_2_" gradientUnits="userSpaceOnUse" x1="63.8478" x2="63.8478" y1="66.1915" y2="132.5352">
        <stop offset="0" stop-color="#E0E0E0"/>
        <stop offset="1" stop-color="#B0BEC5"/>
      </linearGradient>
      <path d="M45,56.23v60.64c0,3.94,8.44,7.13,18.85,7.13s18.85-3.19,18.85-7.13V56.23H45z" fill="url(#SVGID_2_)"/>
      <path d="M84.18,66c-1.4-3.1-0.06-4.96-0.49-8.24c-0.16-1.21-0.07-3.18-3.1-4.77c0,0,0,0-0.01,0 c-0.24-0.13-0.5-0.25-0.77-0.37c-0.94-0.41-2.04-0.78-2.91-0.87c0,0,0,0-0.01,0c-5.71-1.28-15.06-1.76-23.73-4.04 c-4.19-1.1-6.52-0.77-7.43-0.24c0,0-0.01,0-0.01,0c-2.19,1.14-1.99,5.79-1.64,9.35c0.35,3.56,0.72,7.37-1,10.5 c-0.45,0.83-1.05,1.59-1.33,2.49c-0.58,1.86,0.47,4.07,2.28,4.79c-1,2.18-1.91,4.49-1.77,6.88c0.13,2.39,1.58,4.86,3.89,5.48 c0.59,0.16,1.25,0.18,1.79-0.1c1.46-0.77,1.79-2.57,1.81-3.75c0.13-8.88-1.83-17.15-1.45-26.02c0.01-0.21,0.03-0.44,0.16-0.61 c0.15-0.19,0.42-0.24,0.66-0.25c1.42-0.09,2.85,0.7,3.54,1.94c0.63,1.14,0.64,2.52,1.18,3.71c0.85,1.86,3.11,2.95,5.1,2.47 c1.11-0.27,2.07-0.95,3.1-1.43c1.04-0.48,2.78-1.17,3.29-0.14c2.28,4.63,5.18,4.44,5.32,5.22c0,0,1.1,8.1,0.93,13.66 c-0.2,6.52-1.27,12.75-0.37,14.96c1.02,2.51,2.98,2.17,3.74,1.67c3.37-2.21,0.72-10.5,0.96-12.13c0,0,2.53,0.96,3.23-1.83 c0.72-2.89-2.33-9.22-2.19-14.45c0.09-3.2,1.54-4.44,3.23-3.04c0.22,0.19,1.27,0.59,1.68,2.89c0.42,2.38,0.05,6.13,0.81,7.89 c0.76,1.76,3.77-0.22,3.77-4.04C86.42,71.59,85,67.82,84.18,66z" fill="#EEEEEE"/>
      <g>
        <radialGradient id="SVGID_3_" cx="64.3632" cy="49.5036" gradientTransform="matrix(0.9846 0.1746 -0.0561 0.3163 3.7652 22.6085)" gradientUnits="userSpaceOnUse" r="22.6272">
          <stop offset="0" stop-color="#FFF176"/>
          <stop offset="1" stop-color="#FFF176" stop-opacity="0"/>
        </radialGradient>
        <path d="M53.16,47.73c-5.52-1.45-7.82-0.41-7.88,0.29c-0.31,3.9,18.46,8.43,26.41,9.4 c7.48,0.92,11.01,0.03,10.6-2.43C81.54,50.47,66.54,51.25,53.16,47.73z" fill="url(#SVGID_3_)"/>
      </g>
      <radialGradient id="SVGID_4_" cx="62.8714" cy="40.6681" gradientUnits="userSpaceOnUse" r="31.1556">
        <stop offset="0.1702" stop-color="#FF9616"/>
        <stop offset="0.6539" stop-color="#FFD429"/>
      </radialGradient>
      <path d="M70.19,42.93c-3.95,2.5-9.05,2.63-13.17,0.42c-4.55-2.44-9.34-8.95-5.21-20.63 c3.99-11.3,11.34-16.7,14.55-18.61c0.54-0.32,1.18,0.16,1.05,0.76c-0.59,2.7-0.84,8.73,4.96,17.43 C77.92,30.62,76.84,38.72,70.19,42.93z" fill="url(#SVGID_4_)"/>
      <path d="M62.28,50.13c0,0-1.34-3.08-0.94-7.46c0.22-2.42,1.02-4.31,1.44-6.03 c0.54-2.16,0.57-3.85,0.57-3.85c0.79,0.2,1.83,1.73,1.59,4.58c-0.18,2.13-0.83,5.42-0.79,6.31c0.11,2.42,0.58,4.82,1.33,7.13 c0.01,0.03,0.02,0.05,0.02,0.08C65.75,51.66,62.45,50.81,62.28,50.13z" fill="#546E7A"/>
      <linearGradient id="SVGID_5_" gradientUnits="userSpaceOnUse" x1="63.9832" x2="61.4832" y1="34.0041" y2="52.7536">
        <stop offset="0" stop-color="#FFA726"/>
        <stop offset="0.5982" stop-color="#FFA726" stop-opacity="0"/>
      </linearGradient>
      <path d="M61.35,42.66c0.22-2.42,1.02-4.31,1.44-6.03c0.54-2.16,0.57-3.85,0.57-3.85 c0.79,0.2,1.83,1.73,1.59,4.58c-0.18,2.13-0.83,5.42-0.79,6.31C64.25,46.09,60.95,47.05,61.35,42.66z" fill="url(#SVGID_5_)"/>
    </g>
    <path d="M49.13,48.59c1.97,0.92,3.55,2.49,5.43,3.58c1.35,0.78,2.85,1.3,4.39,1.52 c0.97,0.14,2,0.18,2.84,0.68c0.51,0.31,0.95,1,0.6,1.49c-0.16,0.23-0.44,0.33-0.71,0.38c-1.02,0.19-2.05-0.23-3.09-0.32 c-1.56-0.13-3.24,0.47-4.66-0.22c-1.26-0.61-1.92-2.08-3.17-2.71c-0.7-0.36-1.51-0.41-2.3-0.44c-1.5-0.07-4.2-0.65-3.94-2.74 C44.81,47.63,47.74,47.95,49.13,48.59z" fill="#FFFDE7"/>
    <path d="M72.03,59.47c2.65,0.87,5.74,0.79,8.01-0.83c0.88-0.63,1.65-1.56,1.71-2.64 c0.07-1.08-0.82-2.24-1.9-2.15c-0.7,0.06-1.26,0.56-1.84,0.94c-2.57,1.66-5.17,0.65-7.94,0.96C65.72,56.23,70.35,58.92,72.03,59.47 z" fill="#FFFDE7"/>
    <path d="M73.36,92.57c0.05,0.92,0.08,1.87-0.17,2.76c-0.06,0.21-0.71,1.2-1.55,0.53 c-0.77-0.61-0.65-1.78-0.6-2.76c0.15-3.09,0.34-5.73,0.81-8.76c0.2-1.3,0.87-0.15,0.95,0.65c0.08,0.8,0.11,1.76,0.17,2.36 C73.16,89.08,73.27,90.82,73.36,92.57z" fill="#FFFFFF"/>
    <path d="M45.96,73.76c-0.2,0.06-0.41,0.1-0.61,0.04c-0.35-0.09-0.59-0.43-0.66-0.78 c-0.07-0.35,0-0.71,0.08-1.06c0.36-1.42,1.07-2.73,1.76-4.03c0.96-1.77,1.51,1.4,1.48,2.13C47.96,71.48,47.47,73.28,45.96,73.76z" fill="#FFFFFF"/>
  </g>
</svg>

<svg viewBox="0 0 128 128" xmlns="http://www.w3.org/2000/svg">
  <defs>
    <radialGradient id="SVGID_1_" cx="92.987244" cy="39.530105" gradientTransform="matrix(0.6861 0 0 0.6604 0 0)" gradientUnits="userSpaceOnUse" r="39.3905">
      <stop offset="0.0882" stop-color="#FFE265" stop-opacity="0.7"/>
      <stop offset="0.3977" stop-color="#FFEC99" stop-opacity="0.4484"/>
      <stop offset="0.9493" stop-color="#FFFFFF" stop-opacity="0"/>
    </radialGradient>
    <linearGradient id="SVGID_2_" gradientUnits="userSpaceOnUse" x1="63.8478" x2="63.8478" y1="66.1915" y2="132.5352">
      <stop offset="0" stop-color="#E0E0E0"/>
      <stop offset="1" stop-color="#B0BEC5"/>
    </linearGradient>
    <radialGradient id="SVGID_4_" cx="62.8714" cy="40.6681" gradientUnits="userSpaceOnUse" r="31.1556">
      <stop offset="0.1702" stop-color="#FF9616"/>
      <stop offset="0.6539" stop-color="#FFD429"/>
    </radialGradient>
    <linearGradient id="SVGID_5_" gradientUnits="userSpaceOnUse" x1="63.9832" x2="61.4832" y1="34.0041" y2="52.7536">
      <stop offset="0" stop-color="#FFA726"/>
      <stop offset="0.5982" stop-color="#FFA726" stop-opacity="0"/>
    </linearGradient>
    <radialGradient id="SVGID_3_" cx="72.019133" cy="116.755494" gradientTransform="matrix(0.9846 0.1746 -0.0561 0.3163 0 0)" gradientUnits="userSpaceOnUse" r="22.6272">
      <stop offset="0" stop-color="#FFF176"/>
      <stop offset="1" stop-color="#FFF176" stop-opacity="0"/>
    </radialGradient>
  </defs>
  <path d="M90.91,26.63 C90.91,40.19 81.75,52.59 63.73,52.21 C41.56,51.73 36.69,39.45 36.69,25.9 C36.69,12.35 46.34,0 66.05,0 C83.91,0 90.91,13.07 90.91,26.63 Z" fill="url(#SVGID_1_)"/>
  <path d="M45,56.23 L45,116.87 C45,120.81 53.44,124 63.85,124 C74.26,124 82.7,120.81 82.7,116.87 L82.7,56.23 L45,56.23 Z" fill="url(#SVGID_2_)"/>
  <path d="M84.18,66 C82.78,62.9 84.12,61.04 83.69,57.76 C83.53,56.55 83.62,54.58 80.59,52.99 C80.59,52.99 80.59,52.99 80.58,52.99 C80.34,52.86 80.08,52.74 79.81,52.62 C78.87,52.21 77.77,51.84 76.9,51.75 C76.9,51.75 76.9,51.75 76.89,51.75 C71.18,50.47 61.83,49.99 53.16,47.71 C48.97,46.61 46.64,46.94 45.73,47.47 C45.73,47.47 45.72,47.47 45.72,47.47 C43.53,48.61 43.73,53.26 44.08,56.82 C44.43,60.38 44.8,64.19 43.08,67.32 C42.63,68.15 42.03,68.91 41.75,69.81 C41.17,71.67 42.22,73.88 44.03,74.6 C43.03,76.78 42.12,79.09 42.26,81.48 C42.39,83.87 43.84,86.34 46.15,86.96 C46.74,87.12 47.4,87.14 47.94,86.86 C49.4,86.09 49.73,84.29 49.75,83.11 C49.88,74.23 47.92,65.96 48.3,57.09 C48.31,56.88 48.33,56.65 48.46,56.48 C48.61,56.29 48.88,56.24 49.12,56.23 C50.54,56.14 51.97,56.93 52.66,58.17 C53.29,59.31 53.3,60.69 53.84,61.88 C54.69,63.74 56.95,64.83 58.94,64.35 C60.05,64.08 61.01,63.4 62.04,62.92 C63.08,62.44 64.82,61.75 65.33,62.78 C67.61,67.41 70.51,67.22 70.65,68 C70.65,68 71.75,76.1 71.58,81.66 C71.38,88.18 70.31,94.41 71.21,96.62 C72.23,99.13 74.19,98.79 74.95,98.29 C78.32,96.08 75.67,87.79 75.91,86.16 C75.91,86.16 78.44,87.12 79.14,84.33 C79.86,81.44 76.81,75.11 76.95,69.88 C77.04,66.68 78.49,65.44 80.18,66.84 C80.4,67.03 81.45,67.43 81.86,69.73 C82.28,72.11 81.91,75.86 82.67,77.62 C83.43,79.38 86.44,77.4 86.44,73.58 C86.42,71.59 85,67.82 84.18,66 Z" fill="#EEEEEE"/>
  <path d="M53.16,47.73 C47.64,46.28 45.34,47.32 45.28,48.02 C44.97,51.92 63.74,56.45 71.69,57.42 C79.17,58.34 82.7,57.45 82.29,54.99 C81.54,50.47 66.54,51.25 53.16,47.73 Z" fill="url(#SVGID_3_)"/>
  <path d="M70.19,42.93 C66.24,45.43 61.14,45.56 57.02,43.35 C52.47,40.91 47.68,34.4 51.81,22.72 C55.8,11.42 63.15,6.02 66.36,4.11 C66.9,3.79 67.54,4.27 67.41,4.87 C66.82,7.57 66.57,13.6 72.37,22.3 C77.92,30.62 76.84,38.72 70.19,42.93 Z" fill="url(#SVGID_4_)"/>
  <path d="M62.28,50.13 C62.28,50.13 60.94,47.05 61.34,42.67 C61.56,40.25 62.36,38.36 62.78,36.64 C63.32,34.48 63.35,32.79 63.35,32.79 C64.14,32.99 65.18,34.52 64.94,37.37 C64.76,39.5 64.11,42.79 64.15,43.68 C64.26,46.1 64.73,48.5 65.48,50.81 C65.49,50.84 65.5,50.86 65.5,50.89 C65.75,51.66 62.45,50.81 62.28,50.13 Z" fill="#546E7A"/>
  <path d="M61.35,42.66 C61.57,40.24 62.37,38.35 62.79,36.63 C63.33,34.47 63.36,32.78 63.36,32.78 C64.15,32.98 65.19,34.51 64.95,37.36 C64.77,39.49 64.12,42.78 64.16,43.67 C64.25,46.09 60.95,47.05 61.35,42.66 Z" fill="url(#SVGID_5_)"/>
  <path d="M49.13,48.59 C51.1,49.51 52.68,51.08 54.56,52.17 C55.91,52.95 57.41,53.47 58.95,53.69 C59.92,53.83 60.95,53.87 61.79,54.37 C62.3,54.68 62.74,55.37 62.39,55.86 C62.23,56.09 61.95,56.19 61.68,56.24 C60.66,56.43 59.63,56.01 58.59,55.92 C57.03,55.79 55.35,56.39 53.93,55.7 C52.67,55.09 52.01,53.62 50.76,52.99 C50.06,52.63 49.25,52.58 48.46,52.55 C46.96,52.48 44.26,51.9 44.52,49.81 C44.81,47.63 47.74,47.95 49.13,48.59 Z" fill="#FFFDE7"/>
  <path d="M72.03,59.47 C74.68,60.34 77.77,60.26 80.04,58.64 C80.92,58.01 81.69,57.08 81.75,56 C81.82,54.92 80.93,53.76 79.85,53.85 C79.15,53.91 78.59,54.41 78.01,54.79 C75.44,56.45 72.84,55.44 70.07,55.75 C65.72,56.23 70.35,58.92 72.03,59.47 Z" fill="#FFFDE7"/>
  <path d="M73.36,92.57 C73.41,93.49 73.44,94.44 73.19,95.33 C73.13,95.54 72.48,96.53 71.64,95.86 C70.87,95.25 70.99,94.08 71.04,93.1 C71.19,90.01 71.38,87.37 71.85,84.34 C72.05,83.04 72.72,84.19 72.8,84.99 C72.88,85.79 72.91,86.75 72.97,87.35 C73.16,89.08 73.27,90.82 73.36,92.57 Z" fill="#FFFFFF"/>
  <path d="M45.96,73.76 C45.76,73.82 45.55,73.86 45.35,73.8 C45,73.71 44.76,73.37 44.69,73.02 C44.62,72.67 44.69,72.31 44.77,71.96 C45.13,70.54 45.84,69.23 46.53,67.93 C47.49,66.16 48.04,69.33 48.01,70.06 C47.96,71.48 47.47,73.28 45.96,73.76 Z" fill="#FFFFFF"/>
</svg>
